X:150
T: Tommy Sullivan's
S: J.O'Brien: "Irish Folk Dance Music"
Z: B.Black
M: 6/8
L: 1/8
R: jig
K: A
cAF E2 F | ABc dce | cAF E2 F | ABA AFE |
cAF E2 F | ABc dcd | efe ecA | BcB AFE :|
Acc Acc | Acc dcB | Acc Acc | ABA AFE |
Acc Acc | ABc efg | afe ecA | BcB AFE :|
K:G %Transposed from A
BGE D2 E | GAB cBd | BGE D2 E | GAG GED |
BGE D2 E | GAB cBc | ded dBG | ABA GED :|
GBB GBB | GBB cBA | GBB GBB | GAG GED |
GBB GBB | GAB def | ged dBG | ABA GED :|
